X:1
T:O Sacred Head, Now Wounded
T:Text: Latin, medieval; German tr. Paul Gerhardt, 1656; tr. James W. Alexander, 1830, alt. Tune: Hans L. Hassler, 1601; adapt. and harm. Johann S. Bach in St. Matthew Passion, 1729
T:76 76 D HERZLICH TUT MICH VERLANGEN www.hymnary.org/text/o_sacred_head_now_wounded
T:O Sacred Head, Now Wounded
T:This hymn is in the public domain. You may freely use this score for personal and congregational worship. If you reproduce the score, please credit Hymnary.org as the source. 
T:This hymn is in the public domain. You may freely use this score for personal and congregational worship. If you reproduce the score, please credit Hymnary.org as the source. 
Z:This hymn is in the public domain. You may freely use this score for personal and congregational worship. If you reproduce the score, please credit Hymnary.org as the source.
%%score ( 1 2 ) ( 3 4 5 )
L:1/8
M:4/4
K:C
V:1 treble nm="SOPRANO ALTO" snm="S. A."
V:2 treble 
V:3 bass nm="TENOR BASS" snm="T. B."
V:4 bass 
V:5 bass 
V:1
"^1""^2""^3" E2 | A2 G2 F2 E2 | D4 E2 B2 | c2 c2 BA B2 | A6 | E2 | A2 G2 F2 E2 | D4 E2 B2 | %8
w: O|sa- cred head, now|wound- ed, with|grief and shame * weighed|down,|now|scorn- ful- ly sur-|round- ed with|
w: My|Lord, what you did|suf- fer was|all for sin- * ners'|gain;|mine,|mine was the trans-|gres- sion, but|
w: What|lan- guage shall I|bor- row to|thank you, dear- * est|Friend,|for|this, your dy- ing|sor- row, your|
 c2 c2 BA B2 | A6 | c2 | BA G2 A2 B2 | c4 c2 G2 | A2 G2 F2 F2 | E6 |1 c2 | Bc d2 c2 B2 | A4 B2 E2 | %18
w: thorns, your on- * ly|crown.|O|sa- * cred head, what|glo- ry and|bless- ing you have|known!|Yet,|though _ de- spised and|gor- y, I|
w: yours the dead- * ly|pain.|So|here _ I kneel, my|Sav- ior, for|I de- serve your|place;|look|on * me with your|fa- vor and|
w: mer- cy with- * out|end?|Lord,|make _ me yours for-|ev- er, a|loy- al ser- vant|true,|and|let * me nev- er,|nev- er out-|
 F2 E2 D2 G2 | E6 x2 |] %20
w: claim you as my|own.|
w: save me by your|grace.|
w: live my love for|you.|
V:2
 C2 | C2 C2 CD DC | (C2 B,2) C2 D2 | CD E2 E2 ED | C6 | C2 | C2 C2 CD DC | (C2 B,2) C2 D2 | %8
 CD E2 E2 ED | C6 | AG | F2 ED C2 F2 | (F2 ED) E2 E2 | F2 E2 E2 D2 | ^C6 |1 D2 | D2 D2 E2 D2 | %17
 (E2 D2) D2 C2 | CB, C2 C2 B,2 | C6 x2 |] %20
V:3
 x2 | x8 | x8 | x6 E,,2 | x6 | x2 | x8 | x8 | x6 E,,2 | x6 | x2 | x8 | x8 | x8 | x6 |1 x2 | x8 | %17
 x8 | x8 | x8 |] %20
V:4
 G,2 | F,2 G,2 A,G, G,2 | (A,2 G,2) G,2 ^G,2 | E,2 A,2 A,2 ^G,2 | A,6 | G,2 | F,2 G,2 A,G, G,2 | %7
 (A,2 G,2) G,2 ^G,2 | E,2 A,2 A,2 ^G,2 | A,6 | E2 | DC B,2 A,G, F,G, | (A,2 G,F,) G,2 C2 | %13
 C2 CB, A,2 A,2 | A,6 |1 A,2 | G,2 G,^F, G,A, B,G, | (E,A, ^F,2) G,2 G,2 | =F,2 G,2 A,2 D,G, | %19
 G,6 x2 |] %20
V:5
 C,2 | F,2 E,2 A,,B,, C,2 | (F,,2 G,,2) C,2 B,,2 | A,,B,, C,D, E,2 E,2 | A,,6 | C,2 | %6
 F,2 E,2 A,,B,, C,2 | (F,,2 G,,2) C,2 B,,2 | A,,B,, C,D, E,2 E,2 | A,,6 | A,2 | D,2 E,2 F,E, D,2 | %12
 C,4 C,2 C,2 | F,2 C,2 D,E, F,G, | A,6 |1 ^F,2 | G,2 B,,2 E,^F, G,2 | (C,2 D,2) G,,2 C,B,, | %18
 A,,2 G,,2 F,,2 G,,2 | C,6 x2 |] %20

